X:1
T:Title
%%score 1 { 2 | 3 }
L:1/8
Q:1/4=105
M:4/4
K:D
V:1 treble nm="Grand Piano, Soprano"
V:2 bass nm="Choir Pad, Jesus, King Most Wonderful"
V:3 bass 
V:1
 [DF][EG] [FA]2 [=F^G]2 [^FA]2 | [GB]2 [FA]2- [FA][EG] [EG]2 | [CE][DF] [EG]2 [^DF]2 [EG]2 | %3
w: By~J.~M.~Blose * * * *|||
 [CA]2 [DF]6 | [DF][EG] [FA]2 [=F^G]2 [^FA]2 | [Fd]2 [Fd]2- [Fd][Fc] [Fc]2 | %6
w: |||
 [Fc]2 [Fd]2 [FB]2 [EA]2 | [D^G]2 [CA]6 | [EA]2 [FA]2 [Fd]2 [Gc]2 | [GB]2 [GB]2- [GB][FA] [FA]2 | %10
w: ||||
 z2 [FA]2- [FA][EG] [EG]2 | z2 [DG]2- [DG][DF] [DF]2 | [FA]2 [FA]2 [Fd]2 [Gc]2 | %13
w: |||
 [GB]2 [GB]2- [GB][FA] [FA]2 | [EG]2 [DF]2 [DA]2 [CG]2 | [CE]2 D6- | D2 z2 z4 |] %17
w: ||||
V:2
 A,2 D2 B,2 A,2 | D2[K:treble] C2- CC C2 | A,2[K:bass] A,2 A,2 A,2 | A,2 A,6 | A,2 D2 B,2 A,2 | %5
 B,2 B,2- B,^A, A,2 | ^A,2 B,2[K:treble] D2 C2 | B,2 A,6 | C2 D2 A,2 A,2 | B,C D2- DD D2 | %10
 z2 C2- CC C2 | z2[K:bass] B,2- B,A, A,2 | D2 D2 A,2 A,2 | B,[K:treble]C D2- DD D2 | %14
 B,2 A,2 F,2 E,2 | A,G, F,6- | F,2 z2 z4 |] %17
V:3
 D,2 D,2 D,2 D,2 | D,2 [A,,A,]2- [A,,A,][A,,A,] [A,,A,]2 | A,,2 A,,2 A,,2 A,,2 | A,,2 D,6 | %4
 D,2 D,2 D,2 D,2 | B,,2 F,2- F,F, F,2 | E,2 D,2 D,2 E,2 | E,2 A,,6 | A,2 D,2 D,2 D,2 | %9
 D,2 D,2- D,D, D,2 | z2 A,2- A,A, A,2 | z2 D,2- D,D, D,2 | D,2 D,2 D,2 D,2 | D,2 D,2- D,D, D,2 | %14
 G,,2 A,,2 A,,2 A,,2 | A,,2 D,6- | D,2 z2 z4 |] %17

